X: 2
T:Nail That Catfish to the Tree
C:Steve Rosen (@Copyright 1985, Steve Rosen)
M:C|
L:1/8
K:G
DE \
|: "G"G2BG AGBG | cGAG [B2G2]BB | "D"ABAG FDAB | AGFD (3EFE D2 |
   "G"G2BG AGBG | cGAG [B2G2]BB | "D"ABAG FDEF |\
  [1 "G"G2 [B4G4] DE :|[2 "G"G2 [B4G4] D2 ||
|: "C"[E4C4] [A4D4] | [c8E8] | "D"ABAG FDAB | AGFD (3EFE D2 |
   "C"[E4C4] [A4D4] | [c8E8] |\
  [1 "D"ABAG FDEF | "G"G2 [B4G4] D2 :|[2 "D"d2c2 B2A2 | "G"[B6G6] DF |]
N:Portland Collection, pg 146 - abc by Peter Ostapenko 3/27/2007
N:G Major
